img/Settings.svg

<svg xmlns="http://www.w3.org/2000/svg" height="40" width="40"><path d="M22.875 36.667h-5.75q-.5 0-.896-.334-.396-.333-.479-.833l-.625-4.125q-.708-.25-1.437-.687-.73-.438-1.355-.896L8.542 31.5q-.5.208-1 .042-.5-.167-.75-.625l-2.875-5.042q-.292-.458-.167-.979.125-.521.542-.854L7.75 21.5q-.083-.333-.104-.75-.021-.417-.021-.75t.021-.75q.021-.417.104-.75l-3.458-2.542q-.417-.333-.542-.854-.125-.521.167-.979l2.875-5.042q.25-.5.75-.645.5-.146 1 .062l3.791 1.708q.625-.458 1.375-.896.75-.437 1.417-.687L15.75 4.5q.083-.5.479-.833.396-.334.896-.334h5.75q.5 0 .896.334.396.333.479.833l.625 4.125q.708.25 1.458.667.75.416 1.334.916L31.458 8.5q.5-.208 1-.042.5.167.75.625l2.875 5.042q.292.458.167.979-.125.521-.542.854l-3.458 2.459q.083.375.104.791.021.417.021.792 0 .375-.021.771t-.104.771l3.417 2.5q.416.333.541.854.125.521-.125.979l-2.875 5q-.291.5-.791.667-.5.166-1-.042l-3.75-1.708q-.625.458-1.355.916-.729.459-1.437.667L24.25 35.5q-.083.5-.479.833-.396.334-.896.334Zm-2.833-11.125q2.291 0 3.916-1.625T25.583 20q0-2.292-1.625-3.917t-3.916-1.625q-2.334 0-3.959 1.625T14.458 20q0 2.292 1.625 3.917t3.959 1.625Z"/></svg>

<?xml version="1.0" encoding="UTF-8" standalone="no"?>
<svg
   height="40"
   width="40"
   version="1.1"
   id="svg9055"
   xmlns="http://www.w3.org/2000/svg"
   xmlns:svg="http://www.w3.org/2000/svg">
  <defs
     id="defs9059" />
  <path
     d="m 22.875,36.667 h -5.75 q -0.5,0 -0.896,-0.334 Q 15.833,36 15.75,35.5 l -0.625,-4.125 q -0.708,-0.25 -1.437,-0.687 -0.73,-0.438 -1.355,-0.896 L 8.542,31.5 q -0.5,0.208 -1,0.042 -0.5,-0.167 -0.75,-0.625 L 3.917,25.875 Q 3.625,25.417 3.75,24.896 3.875,24.375 4.292,24.042 L 7.75,21.5 Q 7.667,21.167 7.646,20.75 7.625,20.333 7.625,20 7.625,19.667 7.646,19.25 7.667,18.833 7.75,18.5 L 4.292,15.958 Q 3.875,15.625 3.75,15.104 3.625,14.583 3.917,14.125 L 6.792,9.083 q 0.25,-0.5 0.75,-0.645 0.5,-0.146 1,0.062 l 3.791,1.708 Q 12.958,9.75 13.708,9.312 14.458,8.875 15.125,8.625 L 15.75,4.5 Q 15.833,4 16.229,3.667 16.625,3.333 17.125,3.333 h 5.75 q 0.5,0 0.896,0.334 Q 24.167,4 24.25,4.5 l 0.625,4.125 q 0.708,0.25 1.458,0.667 0.75,0.416 1.334,0.916 L 31.458,8.5 q 0.5,-0.208 1,-0.042 0.5,0.167 0.75,0.625 l 2.875,5.042 q 0.292,0.458 0.167,0.979 -0.125,0.521 -0.542,0.854 l -3.458,2.459 q 0.083,0.375 0.104,0.791 0.021,0.417 0.021,0.792 0,0.375 -0.021,0.771 -0.021,0.396 -0.104,0.771 l 3.417,2.5 q 0.416,0.333 0.541,0.854 0.125,0.521 -0.125,0.979 l -2.875,5 q -0.291,0.5 -0.791,0.667 -0.5,0.166 -1,-0.042 l -3.75,-1.708 q -0.625,0.458 -1.355,0.916 -0.729,0.459 -1.437,0.667 L 24.25,35.5 q -0.083,0.5 -0.479,0.833 -0.396,0.334 -0.896,0.334 z M 20.042,25.542 q 2.291,0 3.916,-1.625 1.625,-1.625 1.625,-3.917 0,-2.292 -1.625,-3.917 -1.625,-1.625 -3.916,-1.625 -2.334,0 -3.959,1.625 -1.625,1.625 -1.625,3.917 0,2.292 1.625,3.917 1.625,1.625 3.959,1.625 z"
     id="path9053"
     style="fill:#6a6d6b;fill-opacity:1" />
</svg>
